X:14
T:Jonney Cope. WI.014
T:Johnny Cope,aka. WI.014
M:2/4
L:1/16
Q:1/4=90
S:Wm Irwin, 1838 MS, AGG’s Transcription
R:.Air
O:England
A:Lake District
Z:vmp.Chris Partington.2005
K:C
A2|E2A2 ABcd|e2A2 A2GE|G2G2 GABc|d2G2 B2AG|!
E2A2 ABcd|e2A2 B2BA|G2g2 edcB|A4 A2||!
AB|c3d c2A2|cBcd e2dc|B2G2 d2G2|Bcde d2cB|!
cBcd e2a2|gede g2BA|G2g2 edcB|A4 A2||!
A2|A2a2 a2ga|b2a2 a2ge|g>^fg>a b>c’g>a|g>ed>e g2d2|!
e2a2 a2ga|b2a2 ac’ba|g3d edcB|”^’Etc. Da Capo'”A4 A2|]

